src/images_karasa_jaga_svg/cmd/32/basicshapes.ring.svg

<svg height="32" viewBox="0 0 32 32" width="32" xmlns="http://www.w3.org/2000/svg" xmlns:xlink="http://www.w3.org/1999/xlink"><linearGradient id="a" gradientUnits="userSpaceOnUse" x1="64" x2="64" y1="126.61205" y2="1.387954"><stop offset="0" stop-color="#fff"/><stop offset=".50643778" stop-color="#fff"/><stop offset=".82296139" stop-color="#f1f1f1"/><stop offset=".90625" stop-color="#eaeaea"/><stop offset="1" stop-color="#dfdfdf"/></linearGradient><linearGradient id="b" gradientUnits="userSpaceOnUse" x1="64" x2="64" y1="131.93254" y2="-3.932537"><stop offset="0" stop-color="#7c9fcf"/><stop offset=".5" stop-color="#7c9ece"/><stop offset="1" stop-color="#7b9dcf"/></linearGradient><g transform="scale(.25)"><path d="m64 7.6875a56.312778 56.312778 0 0 0 -56.3125 56.3125 56.312778 56.312778 0 0 0 56.3125 56.3125 56.312778 56.312778 0 0 0 56.3125-56.3125 56.312778 56.312778 0 0 0 -56.3125-56.3125zm0 36.316406a19.996105 19.996105 0 0 1 19.996094 19.996094 19.996105 19.996105 0 0 1 -19.996094 19.996094 19.996105 19.996105 0 0 1 -19.996094-19.996094 19.996105 19.996105 0 0 1 19.996094-19.996094z" fill="url(#b)"/><path d="m64 12.097656a51.902351 51.902351 0 0 0 -51.902344 51.902344 51.902351 51.902351 0 0 0 51.902344 51.90234 51.902351 51.902351 0 0 0 51.90234-51.90234 51.902351 51.902351 0 0 0 -51.90234-51.902344zm0 27.904297a23.9986 23.9986 0 0 1 23.998047 23.998047 23.9986 23.9986 0 0 1 -23.998047 23.998047 23.9986 23.9986 0 0 1 -23.998047-23.998047 23.9986 23.9986 0 0 1 23.998047-23.998047z" fill="url(#a)"/></g></svg>

<?xml version="1.0" encoding="UTF-8" standalone="no"?>
<svg
   xmlns:dc="http://purl.org/dc/elements/1.1/"
   xmlns:cc="http://creativecommons.org/ns#"
   xmlns:rdf="http://www.w3.org/1999/02/22-rdf-syntax-ns#"
   xmlns:svg="http://www.w3.org/2000/svg"
   xmlns="http://www.w3.org/2000/svg"
   xmlns:xlink="http://www.w3.org/1999/xlink"
   xmlns:sodipodi="http://sodipodi.sourceforge.net/DTD/sodipodi-0.dtd"
   xmlns:inkscape="http://www.inkscape.org/namespaces/inkscape"
   height="128"
   viewBox="0 0 128 128"
   width="128"
   version="1.1"
   id="svg10"
   sodipodi:docname="basicshapes.ring.svg"
   inkscape:version="0.92.3 (unknown)"
   inkscape:export-filename="/home/rizmut/Dokumen/Rizmut/Github/libreoffice-style-karasa-jaga/build/images_karasa_jaga/cmd/32/basicshapes.ring.png"
   inkscape:export-xdpi="24"
   inkscape:export-ydpi="24">
  <metadata
     id="metadata16">
    <rdf:RDF>
      <cc:Work
         rdf:about="">
        <dc:format>image/svg+xml</dc:format>
        <dc:type
           rdf:resource="http://purl.org/dc/dcmitype/StillImage" />
        <dc:title></dc:title>
      </cc:Work>
    </rdf:RDF>
  </metadata>
  <defs
     id="defs14">
    <linearGradient
       id="linearGradient7422">
      <stop
         style="stop-color:#7c9fcf;stop-opacity:1"
         offset="0"
         id="stop7424" />
      <stop
         id="stop5348"
         offset="0.5"
         style="stop-color:#7c9ece;stop-opacity:1" />
      <stop
         id="stop7426"
         offset="1"
         style="stop-color:#7b9dcf;stop-opacity:1" />
    </linearGradient>
    <linearGradient
       id="linearGradient3369">
      <stop
         id="stop3372"
         offset="0"
         style="stop-color:#ffffff;stop-opacity:1;" />
      <stop
         style="stop-color:#ffffff;stop-opacity:1;"
         offset="0.50643778"
         id="stop3374" />
      <stop
         style="stop-color:#f1f1f1;stop-opacity:1;"
         offset="0.82296139"
         id="stop3376" />
      <stop
         id="stop3378"
         offset="0.90625"
         style="stop-color:#eaeaea;stop-opacity:1;" />
      <stop
         id="stop3384"
         offset="1"
         style="stop-color:#dfdfdf;stop-opacity:1;" />
    </linearGradient>
    <linearGradient
       inkscape:collect="always"
       xlink:href="#linearGradient3369"
       id="linearGradient861"
       x1="64"
       y1="128"
       x2="64"
       y2="0"
       gradientUnits="userSpaceOnUse"
       gradientTransform="matrix(0.97831322,0,0,0.97831322,1.387954,1.387954)" />
    <linearGradient
       inkscape:collect="always"
       xlink:href="#linearGradient7422"
       id="linearGradient867"
       gradientUnits="userSpaceOnUse"
       gradientTransform="matrix(1.0614459,0,0,1.0614459,-3.9325365,-3.9325365)"
       x1="64"
       y1="128"
       x2="64"
       y2="0" />
  </defs>
  <sodipodi:namedview
     pagecolor="#ffffff"
     bordercolor="#666666"
     borderopacity="1"
     objecttolerance="10"
     gridtolerance="10"
     guidetolerance="10"
     inkscape:pageopacity="0"
     inkscape:pageshadow="2"
     inkscape:window-width="1366"
     inkscape:window-height="706"
     id="namedview12"
     showgrid="true"
     inkscape:zoom="4"
     inkscape:cx="31.978038"
     inkscape:cy="58.670799"
     inkscape:window-x="0"
     inkscape:window-y="0"
     inkscape:window-maximized="1"
     inkscape:current-layer="svg10">
    <inkscape:grid
       type="xygrid"
       id="grid863"
       spacingx="4"
       spacingy="4"
       empspacing="1" />
  </sodipodi:namedview>
  <path
     style="fill:url(#linearGradient867);fill-opacity:1;stroke:none;stroke-width:5.15641689;stroke-linecap:round;stroke-linejoin:bevel;stroke-opacity:0.73039198"
     d="M 64 7.6875 A 56.312778 56.312778 0 0 0 7.6875 64 A 56.312778 56.312778 0 0 0 64 120.3125 A 56.312778 56.312778 0 0 0 120.3125 64 A 56.312778 56.312778 0 0 0 64 7.6875 z M 64 44.003906 A 19.996105 19.996105 0 0 1 83.996094 64 A 19.996105 19.996105 0 0 1 64 83.996094 A 19.996105 19.996105 0 0 1 44.003906 64 A 19.996105 19.996105 0 0 1 64 44.003906 z "
     id="circle865" />
  <path
     style="fill:url(#linearGradient861);fill-opacity:1;stroke:none;stroke-width:4.75256538;stroke-linecap:round;stroke-linejoin:bevel;stroke-opacity:0.73039198;opacity:1"
     d="M 64 12.097656 A 51.902351 51.902351 0 0 0 12.097656 64 A 51.902351 51.902351 0 0 0 64 115.90234 A 51.902351 51.902351 0 0 0 115.90234 64 A 51.902351 51.902351 0 0 0 64 12.097656 z M 64 40.001953 A 23.9986 23.9986 0 0 1 87.998047 64 A 23.9986 23.9986 0 0 1 64 87.998047 A 23.9986 23.9986 0 0 1 40.001953 64 A 23.9986 23.9986 0 0 1 64 40.001953 z "
     id="circle2" />
</svg>
